X: 2
T: PALM SUNDAY
M: 6/8
L: 1/8
K: Gmaj
|: B | AGE G2E | G2E G2B | A2B c2d | ~e2e efg |
e2e dBA | BAG Bcd|~e2e dBA | BAG A2 :|
a | a^ga efg |aga bge | ~g2g gfe|dBG GBd |
efg d2{e}d | BAG Bcd | edc BAG | BAG A2:|
